fs/likert_20_filled.svg

<svg viewBox="0 0 20 20" fill="none" xmlns="http://www.w3.org/2000/svg" height="1em" width="1em">
  <path d="M6 16V10.5H2V13C2 14.6569 3.34315 16 5 16H6ZM7 16H15C16.6569 16 18 14.6569 18 13V10.5H7V16ZM9 14C8.58579 14 8.25 13.6642 8.25 13.25C8.25 12.8358 8.58579 12.5 9 12.5C9.41421 12.5 9.75 12.8358 9.75 13.25C9.75 13.6642 9.41421 14 9 14ZM11.25 14C10.8358 14 10.5 13.6642 10.5 13.25C10.5 12.8358 10.8358 12.5 11.25 12.5C11.6642 12.5 12 12.8358 12 13.25C12 13.6642 11.6642 14 11.25 14ZM13.5 14C13.0858 14 12.75 13.6642 12.75 13.25C12.75 12.8358 13.0858 12.5 13.5 12.5C13.9142 12.5 14.25 12.8358 14.25 13.25C14.25 13.6642 13.9142 14 13.5 14ZM15.75 14C15.3358 14 15 13.6642 15 13.25C15 12.8358 15.3358 12.5 15.75 12.5C16.1642 12.5 16.5 12.8358 16.5 13.25C16.5 13.6642 16.1642 14 15.75 14ZM18 9.5V7C18 5.34315 16.6569 4 15 4H7V9.5H18ZM9.75 6.75C9.75 7.16421 9.41421 7.5 9 7.5C8.58579 7.5 8.25 7.16421 8.25 6.75C8.25 6.33579 8.58579 6 9 6C9.41421 6 9.75 6.33579 9.75 6.75ZM12 6.75C12 7.16421 11.6642 7.5 11.25 7.5C10.8358 7.5 10.5 7.16421 10.5 6.75C10.5 6.33579 10.8358 6 11.25 6C11.6642 6 12 6.33579 12 6.75ZM14.25 6.75C14.25 7.16421 13.9142 7.5 13.5 7.5C13.0858 7.5 12.75 7.16421 12.75 6.75C12.75 6.33579 13.0858 6 13.5 6C13.9142 6 14.25 6.33579 14.25 6.75ZM16.5 6.75C16.5 7.16421 16.1642 7.5 15.75 7.5C15.3358 7.5 15 7.16421 15 6.75C15 6.33579 15.3358 6 15.75 6C16.1642 6 16.5 6.33579 16.5 6.75ZM6 4H5C3.34315 4 2 5.34315 2 7V9.5H6V4Z" fill="#212121"/>
</svg>

<svg viewBox="0 0 20 20" fill="none" xmlns="http://www.w3.org/2000/svg" height="1em" width="1em">
  <path d="M6 16v-5.5H2V13a3 3 0 0 0 3 3h1Zm1 0h8a3 3 0 0 0 3-3v-2.5H7V16Zm2-2a.75.75 0 1 1 0-1.5.75.75 0 0 1 0 1.5Zm2.25 0a.75.75 0 1 1 0-1.5.75.75 0 0 1 0 1.5Zm2.25 0a.75.75 0 1 1 0-1.5.75.75 0 0 1 0 1.5Zm2.25 0a.75.75 0 1 1 0-1.5.75.75 0 0 1 0 1.5ZM18 9.5V7a3 3 0 0 0-3-3H7v5.5h11ZM9.75 6.75a.75.75 0 1 1-1.5 0 .75.75 0 0 1 1.5 0Zm2.25 0a.75.75 0 1 1-1.5 0 .75.75 0 0 1 1.5 0Zm2.25 0a.75.75 0 1 1-1.5 0 .75.75 0 0 1 1.5 0Zm2.25 0a.75.75 0 1 1-1.5 0 .75.75 0 0 1 1.5 0ZM6 4H5a3 3 0 0 0-3 3v2.5h4V4Z" fill="#212121"/>
</svg>
